!!!COM: Palestrina, Giovanni Perluigi da
!!!OPR: Missa In festis Apostolorum (I)
!!!OMD: Gloria
!!!OTL: Amen
**kern	**kern	**kern	**kern	**kern
*Ibass	*Itenor	*Itenor	*Icalto	*Icant
!Bassus	!Tenor 2	!Tenor 1	!Altus	!Cantus
*clefF4	*clefGv2	*clefGv2	*clefG2	*clefG2
*k[]	*k[]	*k[]	*k[]	*k[]
*D:dor	*D:dor	*D:dor	*D:dor	*D:dor
*M4/2	*M4/2	*M4/2	*M4/2	*M4/2
=117	=117	=117	=117	=117
0r	0r	1c	1r	0r
.	.	1d	1f	.
=118	=118	=118	=118	=118
0r	0r	1G	1g	0r
.	.	2.A	2.c	.
.	.	4B	4d	.
=119	=119	=119	=119	=119
0r	1c	4c	4e	0r
.	.	4d	4f	.
.	.	2.e	1g	.
.	1d	.	.	.
.	.	4d	.	.
.	.	[2d	2f	.
=120	=120	=120	=120	=120
0r	2G	2d]	1e	1r
.	2A	2c#	.	.
.	2.B-	2.d	2r	1f
.	.	.	[2d	.
.	4A	4c	.	.
=121	=121	=121	=121	=121
0r	1G	1B-	2d]	1g
.	.	.	2e	.
.	1F	1A	4f	2.c
.	.	.	4g	.
.	.	.	4a	.
.	.	.	4f	4d
=122	=122	=122	=122	=122
1C	2.c	1r	4g	4e
.	.	.	4f	4f
.	.	.	2.e	1g
.	4B	.	.	.
1D	1A	2r	.	.
.	.	.	4d	.
.	.	2A	[2d	2f
=123	=123	=123	=123	=123
2GG	1r	2B-	2d]	1e
2AA	.	2A	2c#	.
2.BB-	1F	2D	[1d	1d
.	.	[2F	.	.
4AA	.	.	.	.
=124	=124	=124	=124	=124
1GG	1G	4F]	2d]	1b-
.	.	8E	.	.
.	.	8D	.	.
.	.	2E	2G	.
1FF	2.C	1F	2A	1a
.	.	.	[2c	.
.	4D	.	.	.
=125	=125	=125	=125	=125
1.C	4E	2.G	4c]	1g
.	4F	.	4d	.
.	1G	.	1e	.
.	.	8A	.	.
.	.	8B	.	.
.	.	4c	.	[1a
.	.	4B	.	.
2D	2F	4A	[2d	.
.	.	4G	.	.
=126	=126	=126	=126	=126
0AA	0E	0A	2d]	0a]
.	.	.	4c#	.
.	.	.	4B	.
.	.	.	1c#	.
=127	=127	=127	=127	=127
[0D	[0D	[0A	[0d	[0f#
=128	=128	=128	=128	=128
0D]	0D]	0A]	0d]	0f#]
==	==	==	==	==
*-	*-	*-	*-	*-
!!!CDT: 1525/^1526/-1594/2/2
!!!OCY: Italia
!!!AGN: Mass (Paraphrase)
!!!AST: renaissance, vocal
!!!ASW: Gregorian Mass
!!!PWK: Masses, Book Mantuan II
!!!RNB: Cadence finals: A,E
!!!YOR: Le Opere Complete, v. 19, p. 43
!!!YOO: Rome, Italy: Fratelli Scalera
!!!END: 1992//
!!!EED: John Miller
!!!YEC: Copyright 2000, John Miller
!!!YEN: United States of America
!!!YEM: Rights to all derivative electronic formats reserved.
!!!YEM: Refer to licensing agreement for further details.
!!!YEM: This file must be accompanied by the licensing agreement.
!!!YEM: A copy of the licensing agreement may be found at http://www.music-cog.ohio-state.edu/HumdrumDatabases/Palestrina/license.txt
!!!EMD: converted to Humdrum by Bret Aarden
